icons/op-budget-24.svg

<svg xmlns="http://www.w3.org/2000/svg" width="24" height="24" viewBox="0 0 24 24"><path d="M5 15v3h6v-3H5Zm3 2H6v-1h2v1Zm2 0h-.594v-1H10v1Zm3-2v3h6v-3h-6Zm3 2h-2v-1h2v1Zm2 0h-.594v-1H18v1Zm-4-5v3h6v-3h-6Zm3 2h-2v-1h2v1Zm2 0h-.594v-1H19v1Zm-6-5v3h6V9h-6Zm3 2h-2v-1h2v1Zm2 0h-.594v-1H18v1ZM5 12v3h6v-3H5Zm3 2H6v-1h2v1Zm2 0h-.594v-1H10v1ZM4 9v3h6V9H4Zm3 2H5v-1h2v1Zm2 0h-.594v-1H9v1ZM5 6v3h6V6H5Zm3 2H6V7h2v1Zm2 0h-.594V7H10v1Z"/></svg>

<svg width="24" height="24" viewBox="0 0 24 24" fill="none" xmlns="http://www.w3.org/2000/svg">
<path d="M5 15V18H11V15H5ZM8 17H6V16H8V17ZM10 17H9.40625V16H10V17ZM13 15V18H19V15H13ZM16 17H14V16H16V17ZM18 17H17.4062V16H18V17ZM14 12V15H20V12H14ZM17 14H15V13H17V14ZM19 14H18.4062V13H19V14ZM13 9V12H19V9H13ZM16 11H14V10H16V11ZM18 11H17.4062V10H18V11ZM5 12V15H11V12H5ZM8 14H6V13H8V14ZM10 14H9.40625V13H10V14ZM4 9V12H10V9H4ZM7 11H5V10H7V11ZM9 11H8.40625V10H9V11ZM5 6V9H11V6H5ZM8 8H6V7H8V8ZM10 8H9.40625V7H10V8Z" fill="black"/>
</svg>
